X: 19104
T: Irish Lamentation
R: waltz
M: 3/4
K: Gmajor
G2|GAB2d2|B3A Bd|e2A2c2|A4 GA|B2 cB AG|D2 G2 A2|B2 AG B2|G4:|
|:G2|Bc d2 d2|d2 cB AG|G2 g2 f2|g4 G2|B>c d2 d2|ed cB AG|G2 g2 f2|g4d2|
e3 g e2|d2 e2 g2|a2 A2 c2|A4 GA|Bc dB AG|D2 d3 c|B2 AG B2|G4:|

